X:1
T:Balclutha, 11.11.11.11
T:Balclutha, 11.11.11.11
T:Heart Pease Danks, 1897
T:Public Domain Courtesy of the Cyber Hymnal™
C:Heart Pease Danks, 1897
Z:Public Domain
Z:Courtesy of the Cyber Hymnal™
%%score ( 1 2 ) ( 3 4 )
L:1/8
Q:1/4=85
M:2/4
K:Bb
V:1 treble 
V:2 treble 
V:3 bass 
V:4 bass 
V:1
 BD EG | F2 F2 | [Fc][Fd] [Fe][Fd] | [Fc]4 | [Fd][Fd] [Fc][Fc] | [=EB]2 [FA]2 | %6
 [DG][DA] [=EB][CE] | [CF]4 | [CF][CG] [FA][FB] | [FAc]2 [FA]2 | [FA][FB] [Fc][Fd] | [Fe]4 | %12
 [Fd][Fc] [FB][FA] | ([EG]>[FA]) ([GB][EG]) | [DF][DB] [EB][EA] | [DB]4 |] %16
V:2
 BD EG | F2 F2 | x4 | x4 | x4 | x4 | x4 | x4 | x4 | x4 | x4 | x4 | x4 | x4 | x4 | x4 |] %16
V:3
 B,D, E,G, | F,2 F,2 | [F,A,][F,B,] [F,C][F,B,] | [F,A,]4 | B,B, [A,C][A,C] | C2 [F,C]2 | %6
 [B,,B,][B,,A,] [C,G,][C,B,] | [F,A,]4 | [F,A,][F,B,] [F,C][F,D] | [F,E]2 [F,C]2 | %10
 [E,C][D,B,] [C,A,][B,,B,] | [A,,C]4 | [B,,B,][C,A,] [D,B,][D,B,] | [E,B,]2 [E,B,]2 | %14
 [F,B,][F,B,] [F,C][F,C] | [B,,B,]4 |] %16
V:4
 B,D, E,G, | F,2 F,2 | x4 | x4 | B,B, x2 | (G,C,) x2 | x4 | x4 | x4 | x4 | x4 | x4 | x4 | x4 | x4 | %15
 x4 |] %16

